X:23
T:New Tyrolese Waltz. CJF.023
R:Waltz
S:C.J.Fox MS, 1829/33, Beverley,E.Yorks.
B:Kidson Coll.Mitchell Lib.M1805
O:England
A:East Yorkshire
Z:vmp.P J Headford 2000 & 2008
M:3/4
L:1/8
Q:1/4=120
K:G
“p”D2|\
” Andantino”G>G B>B d>d|d>bg2 ((3Bd.g)|a2c’z ((3Acf)|\
g2bz” f”D2|!
G>G B>B d>d|d>bg2 ((3Bdg)|a2c’z ((3Ac.f)|g4:|!
“p” ((3Bd.g)|((3Ac.f) a2 ((3Ac.f)| ((3Bd.g) b2 ((3B” f”d.g) |\
((3Ac.f) a2 ((3Ac.f)| ((3Bd.g) b2D2|!
“p”G>G B>B d>d|d>bg2 ((3Bd.g)|\
a2c’z ((3Ac.f)|g4:|

